X: 3716
T: Billy's Kitchen
R: polka
M: 2/4
K: Gmajor
|:G,/A,/B, GD|EG ED|G,>B, GD|EG AA,|
G,/A,/B, GD|EG AB|d2 GB|1 AG GB,/A,/:|2 AG GA||
|:B/c/d gd|eg dA|B/c/d gd|ea ag/a/|
bg af|e/f/g dA|B/c/d BG|1 AB GA:|2 AB GB,/A,/||

